src/assets/outline/ArrangeCircle2.svg

<svg width="24" height="24" viewBox="0 0 24 24"  xmlns="http://www.w3.org/2000/svg">
<path d="M14.1098 17.6097C13.9198 17.6097 13.7298 17.5398 13.5798 17.3898C13.2898 17.0998 13.2898 16.6197 13.5798 16.3297L16.6198 13.2898C16.9098 12.9998 17.3898 12.9998 17.6798 13.2898C17.9698 13.5798 17.9698 14.0598 17.6798 14.3498L14.6398 17.3898C14.4998 17.5298 14.3098 17.6097 14.1098 17.6097Z" />
<path d="M17.1498 14.5698H6.83984C6.42984 14.5698 6.08984 14.2298 6.08984 13.8198C6.08984 13.4098 6.42984 13.0698 6.83984 13.0698H17.1498C17.5598 13.0698 17.8998 13.4098 17.8998 13.8198C17.8998 14.2298 17.5698 14.5698 17.1498 14.5698Z" />
<path d="M6.85004 10.9301C6.66004 10.9301 6.47004 10.8601 6.32004 10.7101C6.03004 10.4201 6.03004 9.94009 6.32004 9.65009L9.36002 6.61008C9.65002 6.32008 10.13 6.32008 10.42 6.61008C10.71 6.90008 10.71 7.38011 10.42 7.67011L7.38004 10.7101C7.23004 10.8601 7.04004 10.9301 6.85004 10.9301Z" />
<path d="M17.1498 10.9297H6.83984C6.42984 10.9297 6.08984 10.5897 6.08984 10.1797C6.08984 9.76969 6.42984 9.42969 6.83984 9.42969H17.1498C17.5598 9.42969 17.8998 9.76969 17.8998 10.1797C17.8998 10.5897 17.5698 10.9297 17.1498 10.9297Z" />
<path d="M12 22.75C6.07 22.75 1.25 17.93 1.25 12C1.25 6.07 6.07 1.25 12 1.25C17.93 1.25 22.75 6.07 22.75 12C22.75 17.93 17.93 22.75 12 22.75ZM12 2.75C6.9 2.75 2.75 6.9 2.75 12C2.75 17.1 6.9 21.25 12 21.25C17.1 21.25 21.25 17.1 21.25 12C21.25 6.9 17.1 2.75 12 2.75Z" />
</svg>

<?xml version="1.0" encoding="UTF-8"?>
<svg width="24" height="24" viewBox="0 0 24 24" xmlns="http://www.w3.org/2000/svg">
 <path d="m14.11 17.61c-0.19 0-0.38-0.0699-0.53-0.2199-0.29-0.29-0.29-0.7701 0-1.0601l3.04-3.0399c0.29-0.29 0.77-0.29 1.06 0s0.29 0.77 0 1.06l-3.04 3.04c-0.14 0.14-0.33 0.2199-0.53 0.2199z"/>
 <path d="m17.15 14.57h-10.31c-0.41 0-0.75-0.34-0.75-0.75s0.34-0.75 0.75-0.75h10.31c0.41 0 0.75 0.34 0.75 0.75s-0.33 0.75-0.75 0.75z"/>
 <path d="m6.85 10.93c-0.19 0-0.38-0.07-0.53-0.22-0.29-0.29-0.29-0.77001 0-1.06l3.04-3.04c0.29-0.29 0.76998-0.29 1.06 0s0.29 0.77003 0 1.06l-3.04 3.04c-0.15 0.15-0.34 0.22-0.53 0.22z"/>
 <path d="m17.15 10.93h-10.31c-0.41 0-0.75-0.34-0.75-0.75 0-0.41001 0.34-0.75001 0.75-0.75001h10.31c0.41 0 0.75 0.34 0.75 0.75001 0 0.41-0.33 0.75-0.75 0.75z"/>
 <path d="m12 22.75c-5.93 0-10.75-4.82-10.75-10.75s4.82-10.75 10.75-10.75 10.75 4.82 10.75 10.75-4.82 10.75-10.75 10.75zm0-20c-5.1 0-9.25 4.15-9.25 9.25s4.15 9.25 9.25 9.25 9.25-4.15 9.25-9.25-4.15-9.25-9.25-9.25z"/>
</svg>
